korla/apps/scalable/panel.svg

<!DOCTYPE svg  PUBLIC '-//W3C//DTD SVG 1.1//EN'  'http://www.w3.org/Graphics/SVG/1.1/DTD/svg11.dtd'>
<svg style="clip-rule:evenodd;fill-rule:evenodd;stroke-linecap:round;stroke-linejoin:round;stroke-miterlimit:1.5" version="1.1" viewBox="0 0 48 48" xmlns="http://www.w3.org/2000/svg">
 <g transform="matrix(.657628 0 0 .657628 -221.1 -319.299)">
  <rect x="339.25" y="497.51" width="66.907" height="50.487" style="fill-opacity:.666667"/>
  <rect x="339.25" y="496.056" width="66.907" height="50.487" style="fill:url(#_Linear1)"/>
  <path d="m339.406 540.233c-0.056 0-0.102 0.028-0.156 0.034v3.901c0 1.316 1.058 2.375 2.375 2.375h62.157c1.316 0 2.375-1.059 2.375-2.375v-3.935h-66.751z" style="fill-rule:nonzero;fill:url(#_Linear2)"/>
  <g transform="matrix(1.52062,0,0,1.52062,336.208,485.531)">
   <path d="m4.261 9.487h13.829" style="fill:none;stroke-opacity:.141176;stroke-width:2.46px;stroke:white"/>
  </g>
 </g>
 <defs>
  <linearGradient id="_Linear1" x2="1" gradientTransform="matrix(3.18233e-15,-51.9714,51.9714,3.18233e-15,374.224,548.027)" gradientUnits="userSpaceOnUse">
   <stop style="stop-color:rgb(86,96,105)" offset="0"/>
   <stop style="stop-color:rgb(108,120,132)" offset="1"/>
  </linearGradient>
  <linearGradient id="_Linear2" x2="1" gradientTransform="matrix(-.458891 -49.2389 49.2389 -.458891 371.647 546.473)" gradientUnits="userSpaceOnUse">
   <stop style="stop-color:rgb(204,204,204)" offset="0"/>
   <stop style="stop-color:rgb(245,242,245)" offset="1"/>
  </linearGradient>
 </defs>
</svg>

<?xml version="1.0" encoding="UTF-8" standalone="no"?>
<!DOCTYPE svg PUBLIC "-//W3C//DTD SVG 1.1//EN" "http://www.w3.org/Graphics/SVG/1.1/DTD/svg11.dtd">
<svg width="100%" height="100%" viewBox="0 0 48 48" version="1.1" xmlns="http://www.w3.org/2000/svg" xmlns:xlink="http://www.w3.org/1999/xlink" xml:space="preserve" xmlns:serif="http://www.serif.com/" style="fill-rule:evenodd;clip-rule:evenodd;stroke-linecap:round;stroke-linejoin:round;stroke-miterlimit:1.5;">
    <g transform="matrix(0.657628,0,0,0.657628,-221.1,-319.299)">
        <rect x="339.25" y="497.51" width="66.907" height="50.487" style="fill-opacity:0.666667;"/>
        <rect x="339.25" y="496.056" width="66.907" height="50.487" style="fill:url(#_Linear1);"/>
        <path d="M339.406,540.233C339.35,540.233 339.304,540.261 339.25,540.267L339.25,544.168C339.25,545.484 340.308,546.543 341.625,546.543L403.782,546.543C405.098,546.543 406.157,545.484 406.157,544.168L406.157,540.233L339.406,540.233Z" style="fill:url(#_Linear2);fill-rule:nonzero;"/>
        <g transform="matrix(1.52062,0,0,1.52062,336.208,485.531)">
            <path d="M4.261,9.487L18.09,9.487" style="fill:none;stroke:white;stroke-opacity:0.141176;stroke-width:2.46px;"/>
        </g>
    </g>
    <defs>
        <linearGradient id="_Linear1" x1="0" y1="0" x2="1" y2="0" gradientUnits="userSpaceOnUse" gradientTransform="matrix(3.18233e-15,-51.9714,51.9714,3.18233e-15,374.224,548.027)"><stop offset="0" style="stop-color:rgb(86,96,105);stop-opacity:1"/><stop offset="1" style="stop-color:rgb(108,120,132);stop-opacity:1"/></linearGradient>
        <linearGradient id="_Linear2" x1="0" y1="0" x2="1" y2="0" gradientUnits="userSpaceOnUse" gradientTransform="matrix(-0.458891,-49.2389,49.2389,-0.458891,371.647,546.473)"><stop offset="0" style="stop-color:rgb(204,204,204);stop-opacity:1"/><stop offset="1" style="stop-color:rgb(245,242,245);stop-opacity:1"/></linearGradient>
    </defs>
</svg>
